symbols/web/ballot/materialsymbolsrounded/ballot_wght600gradN25fill1_48px.svg

<svg xmlns="http://www.w3.org/2000/svg" height="48" width="48"><path d="M24 19.75h8.55q.55 0 .975-.4.425-.4.425-1.05 0-.6-.425-1t-.975-.4H24q-.6 0-1.025.425-.425.425-.425 1.025 0 .6.425 1t1.025.4Zm0 11.35h8.55q.55 0 .975-.425.425-.425.425-1.025 0-.6-.425-1.025-.425-.425-.975-.425H24q-.6 0-1.025.425-.425.425-.425 1.025 0 .6.425 1.025.425.425 1.025.425Zm-7.15-10.25h1.25q.8 0 1.35-.525T20 18.95V17.7q0-.8-.55-1.35t-1.35-.55h-1.25q-.85 0-1.375.55t-.525 1.35v1.25q0 .85.525 1.375t1.375.525Zm0 11.3h1.25q.8 0 1.35-.525T20 30.25V29q0-.8-.55-1.35t-1.35-.55h-1.25q-.85 0-1.375.55T14.95 29v1.25q0 .85.525 1.375t1.375.525ZM9.35 42.5q-1.55 0-2.7-1.15-1.15-1.15-1.15-2.7V9.35q0-1.55 1.15-2.7Q7.8 5.5 9.35 5.5h29.3q1.55 0 2.7 1.15 1.15 1.15 1.15 2.7v29.3q0 1.55-1.15 2.7-1.15 1.15-2.7 1.15Z"/></svg>

<svg xmlns="http://www.w3.org/2000/svg" height="48" width="48"><path d="M24 19.75H32.55Q33.1 19.75 33.525 19.35Q33.95 18.95 33.95 18.3Q33.95 17.7 33.525 17.3Q33.1 16.9 32.55 16.9H24Q23.4 16.9 22.975 17.325Q22.55 17.75 22.55 18.35Q22.55 18.95 22.975 19.35Q23.4 19.75 24 19.75ZM24 31.1H32.55Q33.1 31.1 33.525 30.675Q33.95 30.25 33.95 29.65Q33.95 29.05 33.525 28.625Q33.1 28.2 32.55 28.2H24Q23.4 28.2 22.975 28.625Q22.55 29.05 22.55 29.65Q22.55 30.25 22.975 30.675Q23.4 31.1 24 31.1ZM16.85 20.85H18.1Q18.9 20.85 19.45 20.325Q20 19.8 20 18.95V17.7Q20 16.9 19.45 16.35Q18.9 15.8 18.1 15.8H16.85Q16 15.8 15.475 16.35Q14.95 16.9 14.95 17.7V18.95Q14.95 19.8 15.475 20.325Q16 20.85 16.85 20.85ZM16.85 32.15H18.1Q18.9 32.15 19.45 31.625Q20 31.1 20 30.25V29Q20 28.2 19.45 27.65Q18.9 27.1 18.1 27.1H16.85Q16 27.1 15.475 27.65Q14.95 28.2 14.95 29V30.25Q14.95 31.1 15.475 31.625Q16 32.15 16.85 32.15ZM9.35 42.5Q7.8 42.5 6.65 41.35Q5.5 40.2 5.5 38.65V9.35Q5.5 7.8 6.65 6.65Q7.8 5.5 9.35 5.5H38.65Q40.2 5.5 41.35 6.65Q42.5 7.8 42.5 9.35V38.65Q42.5 40.2 41.35 41.35Q40.2 42.5 38.65 42.5Z"/></svg>
